X:1
T:French Suite III Gigue
T:BWV 814
T:J. S. Bach
%%score { 1 | 2 }
L:1/8
M:3/8
K:D
V:1 treble nm="Harp"
V:2 bass 
V:1
 B | F2 B/4c/4d/ | c/4B/4c3/2 f | ef/e/d/c/ | d/c/B/d/f/d/ | b/f/d/B/f/d/ | g/e/B/e/g/e/ | %7
 a/e/c/A/e/c/ | f/d/A/d/f/d/ | g/d/f/d/e/d/ | a/d/g/d/f/d/ | bag | fed | e/d/c/e/B/e/ | %14
 A/e/G/e/F/d/ | E/d/c/B/A/G/ | F/E/D/E/F/G/ | A/D/F/A/d- | d/B/^G/E/c/A/ | %19
 f/d/a/4^g/4a/4g/4a/4g/4f/4g/4 | aAa | Ba/^g/a/b/ | ^g3- | gA/^g/a/g/ | f/^e/ f2- | %25
 f/a/^g/f/^e/f/ | ^e/^g/c/B/A/f/ | dcB | A^GF | B/f/A/f/^G/f/ | c/f/B/f/A/f/ | b/a/^g/b/f/b/ | %32
 ^e/b/d/b/c/a/ | B/^g/ c^e | f2 B | F2 B/4c/4d/ | c/4B/4c3/2 f | ef/e/d/c/ | d/c/B/d/f/d/ | %39
 b/f/d/B/f/d/ | g/e/B/e/g/e/ | a/e/c/A/e/c/ | f/d/A/d/f/d/ | g/d/f/d/e/d/ | a/d/g/d/f/d/ | bag | %46
 fed | e/d/c/e/B/e/ | A/e/G/e/F/d/ | E/d/c/B/A/G/ | F/E/D/E/F/G/ | A/D/F/A/d- | d/B/^G/E/c/A/ | %53
 f/d/a/4^g/4a/4g/4a/4g/4f/4g/4 | aAa | Ba/^g/a/b/ | ^g3- | gA/^g/a/g/ | f/^e/ f2- | %59
 f/a/^g/f/^e/f/ | ^e/^g/c/B/A/f/ | dcB | A^GF | B/f/A/f/^G/f/ | c/f/B/f/A/f/ | b/a/^g/b/f/b/ | %66
 ^e/b/d/b/c/a/ | B/^g/ c^e | f2 c | B/^A/^G/F/f/A/ | B/c/ d2- | d/c/B/A/e/B/ | cAc | d/A/F/D/A/F/ | %74
 B/G/d/B/g/d/ | e/B/^G/E/B/G/ | c/A/e/c/a/e/ | f/c/^A/F/c/A/ | d/B/f/d/b/^d/ | a/e/g/e/f/e/ | %80
 b/e/a/e/g/e/ | =c'ba | gfe | f/e/^d/f/=c/f/ | B/f/A/f/G/e/ | F/A/e/^d/c/d/ | e2 e | d/c/B/A/a/c/ | %88
 d/e/ f2- | f/d/c/B/g/B/ | c/d/ e2- | e/c/B/^A/f/A/ | B/c/ d2- | d/G/F/E/d/c/ | B/^A/^G/F/G/A/ | %95
 B/e/B/d/B/c/ | B/f/B/e/B/d/ | gfe | dcB | e/d/c/e/B/e/ | ^A/e/G/e/F/d/ | E/c/ F^A | B2 c | %103
 B/^A/^G/F/f/A/ | B/c/ d2- | d/c/B/A/e/B/ | cAc | d/A/F/D/A/F/ | B/G/d/B/g/d/ | e/B/^G/E/B/G/ | %110
 c/A/e/c/a/e/ | f/c/^A/F/c/A/ | d/B/f/d/b/^d/ | a/e/g/e/f/e/ | b/e/a/e/g/e/ | =c'ba | gfe | %117
 f/e/^d/f/=c/f/ | B/f/A/f/G/e/ | F/A/e/^d/c/d/ | e2 e | d/c/B/A/a/c/ | d/e/ f2- | f/d/c/B/g/B/ | %124
 c/d/ e2- | e/c/B/^A/f/A/ | B/c/ d2- | d/G/F/E/d/c/ | B/^A/^G/F/G/A/ | B/e/B/d/B/c/ | %130
 B/f/B/e/B/d/ | gfe | dcB | e/d/c/e/B/e/ | ^A/e/G/e/F/d/ | E/c/ F^A | !fermata!B2 z |] %137
V:2
 z | z z B, | F,2 D | C2 F | B,2 z | z z/ B,/D/B,/ | E/B,/G,/E,/B,/G,/ | C/A,/E,/A,/C/A,/ | %8
 D/A,/F,/D,/A,/F,/ | B,A,G, | F,E,D, | G,/D/F,/D/E,/D/ | A,/D/G,/D/F,/D/ | G,/F,/E,/G,/D,/G,/ | %14
 C,/G,/B,,/G,/A,,/F,/ | G,,/E,/ A,,C, | D,D,,A,, | F,,2 B,,/4C,/4D,/ | A,,/4^G,,/4A,,3/2 E, | %19
 D,E,/D,/C,/B,,/ | C,/B,,/A,,/B,,/C,/A,,/ | D,/B,,/F,,/D,,/D,/B,,/ | E,/B,,/^G,,/E,,/D,/B,,/ | %23
 C,/A,,/C,/E,/A,/C,/ | D,/A,,/D,/F,/A,/F,/ | B,/A,/B,/C/D/B,/ | C/B,/A,/C/F,/A,/ | %27
 B,/F,/A,/F,/^G,/F,/ | C/F,/B,/F,/A,/F,/ | DCB, | A,^G,F, | ^G,/F,/^E,/G,/D,/G,/ | %32
 C,/^G,/B,,/G,/A,,/F,/ | D,/B,,/ C,C,, | F,,2 z | z z B, | F,2 D | C2 F | B,2 z | z z/ B,/D/B,/ | %40
 E/B,/G,/E,/B,/G,/ | C/A,/E,/A,/C/A,/ | D/A,/F,/D,/A,/F,/ | B,A,G, | F,E,D, | G,/D/F,/D/E,/D/ | %46
 A,/D/G,/D/F,/D/ | G,/F,/E,/G,/D,/G,/ | C,/G,/B,,/G,/A,,/F,/ | G,,/E,/ A,,C, | D,D,,A,, | %51
 F,,2 B,,/4C,/4D,/ | A,,/4^G,,/4A,,3/2 E, | D,E,/D,/C,/B,,/ | C,/B,,/A,,/B,,/C,/A,,/ | %55
 D,/B,,/F,,/D,,/D,/B,,/ | E,/B,,/^G,,/E,,/D,/B,,/ | C,/A,,/C,/E,/A,/C,/ | D,/A,,/D,/F,/A,/F,/ | %59
 B,/A,/B,/C/D/B,/ | C/B,/A,/C/F,/A,/ | B,/F,/A,/F,/^G,/F,/ | C/F,/B,/F,/A,/F,/ | DCB, | A,^G,F, | %65
 ^G,/F,/^E,/G,/D,/G,/ | C,/^G,/B,,/G,/A,,/F,/ | D,/B,,/ C,C,, | F,,2 z | z2 F, | %70
 E,/D,/C,/B,,/B,/D,/ | E,/F,/ ^G,2 | A,/G,/F,/E,/A,/E,/ | F,/D,/F,/A,/D/A,/ | G,/D,/G,/B,/D/B,/ | %75
 ^G,/E,/G,/B,/E/B,/ | A,/E,/A,/C/E/C/ | ^A,/F,/A,/C/F/C/ | B,/D/C/B,/A,/G,/ | =CB,A, | G,F,E, | %81
 A,/E/G,/E/F,/E/ | B,/E/A,/E/G,/E/ | A,/G,/F,/A,/E,/A,/ | ^D,/A,/=C,/A,/B,,/G,/ | %85
 A,,/F,/B,,/G,/B,,/A,/ | E,/A,/G,/F,/G,/E,/ | A,A,,G,- | G,/F,/E,/D,/D/F,/ | G,/A,/ B,2- | %90
 B,/G,/F,/E,/C/E,/ | F,/G,/F,/E,/D,/C,/ | D,/E,/D,/C,/B,,/A,,/ | G,,B,,E, | F,,/F,/E,/D,/C,/B,,/ | %95
 G,F,E, | D,C,B,, | E,/B,/D,/B,/C,/B,/ | F,/B,/E,/B,/D,/B,/ | C/B,/^A,/C/G,/C/ | F,/C/E,/C/D,/B,/ | %101
 G,/E,/ F,F,, | B,,2 z | z2 F, | E,/D,/C,/B,,/B,/D,/ | E,/F,/ ^G,2 | A,/G,/F,/E,/A,/E,/ | %107
 F,/D,/F,/A,/D/A,/ | G,/D,/G,/B,/D/B,/ | ^G,/E,/G,/B,/E/B,/ | A,/E,/A,/C/E/C/ | ^A,/F,/A,/C/F/C/ | %112
 B,/D/C/B,/A,/G,/ | =CB,A, | G,F,E, | A,/E/G,/E/F,/E/ | B,/E/A,/E/G,/E/ | A,/G,/F,/A,/E,/A,/ | %118
 ^D,/A,/=C,/A,/B,,/G,/ | A,,/F,/B,,/G,/B,,/A,/ | E,/A,/G,/F,/G,/E,/ | A,A,,G,- | %122
 G,/F,/E,/D,/D/F,/ | G,/A,/ B,2- | B,/G,/F,/E,/C/E,/ | F,/G,/F,/E,/D,/C,/ | D,/E,/D,/C,/B,,/A,,/ | %127
 G,,B,,E, | F,,/F,/E,/D,/C,/B,,/ | G,F,E, | D,C,B,, | E,/B,/D,/B,/C,/B,/ | F,/B,/E,/B,/D,/B,/ | %133
 C/B,/^A,/C/G,/C/ | F,/C/E,/C/D,/B,/ | G,/E,/ F,F,, | !fermata!B,,2 z |] %137

